symbols/web/rule_folder/materialsymbolsoutlined/rule_folder_wght600grad200fill1_48px.svg

<svg xmlns="http://www.w3.org/2000/svg" height="48" width="48"><path d="m15.5 31.45 9.35-9.35-2.3-2.3-7.1 7.1-2.85-2.85-2.2 2.25Zm13.45 0 3.2-3.2 3.2 3.2 2.25-2.25-3.2-3.2 3.2-3.2-2.25-2.25-3.2 3.2-3.2-3.2-2.25 2.25 3.2 3.2-3.2 3.2ZM7.25 41q-1.65 0-2.9-1.25t-1.25-2.9V10.8q0-1.7 1.25-2.95Q5.6 6.6 7.25 6.6h13.3l3.5 3.5h16.8q1.65 0 2.9 1.25T45 14.3v22.55q0 1.65-1.25 2.9T40.85 41Z"/></svg>

<svg xmlns="http://www.w3.org/2000/svg" height="48" width="48"><path d="M15.5 31.45 24.85 22.1 22.55 19.8 15.45 26.9 12.6 24.05 10.4 26.3ZM28.95 31.45 32.15 28.25 35.35 31.45 37.6 29.2 34.4 26 37.6 22.8 35.35 20.55 32.15 23.75 28.95 20.55 26.7 22.8 29.9 26 26.7 29.2ZM7.25 41Q5.6 41 4.35 39.75Q3.1 38.5 3.1 36.85V10.8Q3.1 9.1 4.35 7.85Q5.6 6.6 7.25 6.6H20.55L24.05 10.1H40.85Q42.5 10.1 43.75 11.35Q45 12.6 45 14.3V36.85Q45 38.5 43.75 39.75Q42.5 41 40.85 41Z"/></svg>
